assets/Japanese prohibited button/Flat/japanese_prohibited_button_flat.svg

<svg width="32" height="32" viewBox="0 0 32 32" fill="none" xmlns="http://www.w3.org/2000/svg">
<path d="M2 6C2 3.79086 3.79086 2 6 2H26C28.2091 2 30 3.79086 30 6V26C30 28.2091 28.2091 30 26 30H6C3.79086 30 2 28.2091 2 26V6Z" fill="#F92F60"/>
<path d="M11 6C10.4477 6 10 6.44772 10 7V8H8C7.44772 8 7 8.44772 7 9C7 9.55228 7.44772 10 8 10H9.65221L9.58579 10.0713C9.19594 10.4888 8.72818 10.9671 8.35318 11.2894C7.63683 11.9053 7.28886 12.1846 6.50175 12.6369L6.51803 12.6652L6.5 12.634C6.38627 12.6997 6.28659 12.7871 6.20665 12.8913C6.1267 12.9955 6.06806 13.1144 6.03407 13.2412C6.00009 13.3681 5.99141 13.5004 6.00856 13.6306C6.0257 13.7608 6.06831 13.8863 6.13397 14C6.19964 14.1138 6.28705 14.2134 6.39124 14.2934C6.49542 14.3733 6.61433 14.432 6.74118 14.466C6.86803 14.5 7.00033 14.5086 7.13053 14.4915C7.25941 14.4745 7.38374 14.4326 7.49656 14.368L7.49825 14.371C8.43771 13.8311 8.89259 13.4632 9.65695 12.8061C9.76834 12.7103 9.88361 12.606 10 12.4968V15C10 15.5523 10.4477 16 11 16C11.5523 16 12 15.5523 12 15V11.8853L13.4148 13.3681C13.8023 13.7742 14.4481 13.7818 14.845 13.3849C15.229 13.001 15.2363 12.3807 14.8614 11.9879L12.9647 10H14C14.5523 10 15 9.55228 15 9C15 8.44772 14.5523 8 14 8H12V7C12 6.44772 11.5523 6 11 6Z" fill="white"/>
<path d="M8 18C8 17.4477 8.44772 17 9 17H23C23.5523 17 24 17.4477 24 18C24 18.5523 23.5523 19 23 19H9C8.44772 19 8 18.5523 8 18Z" fill="white"/>
<path d="M6 21C6 20.4477 6.44772 20 7 20H25C25.5523 20 26 20.4477 26 21C26 21.5523 25.5523 22 25 22H17V25.3125H16.9757C16.8257 26.2686 15.9983 27 15 27H14C13.4477 27 13 26.5523 13 26C13 25.4477 13.4477 25 14 25H14.5C14.7761 25 15 24.7761 15 24.5V22H7C6.44772 22 6 21.5523 6 21Z" fill="white"/>
<path d="M8.70711 25.7071C8.31658 25.3166 8.31658 24.6834 8.70711 24.2929L10.1213 22.8787C10.5118 22.4882 11.145 22.4882 11.5355 22.8787C11.9261 23.2692 11.9261 23.9024 11.5355 24.2929L10.1213 25.7071C9.7308 26.0976 9.09763 26.0976 8.70711 25.7071Z" fill="white"/>
<path d="M23.1213 24.3713L21.7071 22.9571C21.3166 22.5666 20.6834 22.5666 20.2929 22.9571C19.9024 23.3476 19.9024 23.9808 20.2929 24.3713L21.7071 25.7855C22.0976 26.1761 22.7308 26.1761 23.1213 25.7855C23.5118 25.395 23.5118 24.7618 23.1213 24.3713Z" fill="white"/>
<path d="M20 7C20 6.44772 20.4477 6 21 6C21.5523 6 22 6.44772 22 7V8H24C24.5523 8 25 8.44772 25 9C25 9.55228 24.5523 10 24 10H22.1012L22.1676 10.0713C22.5575 10.4888 23.0252 10.9671 23.4002 11.2894C24.1166 11.9053 24.4646 12.1846 25.2517 12.6369L25.2354 12.6652L25.2534 12.634C25.3671 12.6997 25.4668 12.7871 25.5468 12.8913C25.6267 12.9955 25.6854 13.1144 25.7193 13.2412C25.7533 13.3681 25.762 13.5004 25.7449 13.6306C25.7277 13.7608 25.6851 13.8863 25.6194 14C25.5538 14.1138 25.4664 14.2134 25.3622 14.2934C25.258 14.3733 25.1391 14.432 25.0122 14.466C24.8854 14.5 24.7531 14.5086 24.6229 14.4915C24.494 14.4745 24.3697 14.4326 24.2569 14.368L24.2552 14.371C23.3157 13.8311 22.8608 13.4632 22.0965 12.8061C22.0646 12.7787 22.0324 12.7506 22 12.7219V15C22 15.5523 21.5523 16 21 16C20.4477 16 20 15.5523 20 15V12.4968C19.8836 12.606 19.7683 12.7103 19.657 12.8061C18.8926 13.4632 18.4377 13.8311 17.4983 14.371L17.4966 14.368C17.3837 14.4326 17.2594 14.4745 17.1305 14.4915C17.0003 14.5086 16.868 14.5 16.7412 14.466C16.6143 14.432 16.4954 14.3733 16.3912 14.2934C16.2871 14.2134 16.1996 14.1138 16.134 14C16.0683 13.8863 16.0257 13.7608 16.0086 13.6306C15.9914 13.5004 16.0001 13.3681 16.0341 13.2412C16.0681 13.1144 16.1267 12.9955 16.2066 12.8913C16.2866 12.7871 16.3863 12.6997 16.5 12.634L16.518 12.6652L16.5017 12.6369C17.2889 12.1846 17.6368 11.9053 18.3532 11.2894C18.7282 10.9671 19.1959 10.4888 19.5858 10.0713L19.6522 10H18C17.4477 10 17 9.55228 17 9C17 8.44772 17.4477 8 18 8H20V7Z" fill="white"/>
</svg>

<svg xmlns="http://www.w3.org/2000/svg" width="32" height="32" fill="none"><path fill="#F92F60" d="M2 6a4 4 0 0 1 4-4h20a4 4 0 0 1 4 4v20a4 4 0 0 1-4 4H6a4 4 0 0 1-4-4V6Z"/><path fill="#fff" d="M11 6a1 1 0 0 0-1 1v1H8a1 1 0 0 0 0 2h1.652l-.066.071c-.39.418-.858.896-1.233 1.218-.716.616-1.064.896-1.851 1.348l.016.028-.018-.031a1 1 0 0 0 .997 1.734l.001.003c.94-.54 1.395-.908 2.159-1.565.111-.096.227-.2.343-.31V15a1 1 0 1 0 2 0v-3.115l1.415 1.483a1 1 0 0 0 1.446-1.38L12.965 10H14a1 1 0 1 0 0-2h-2V7a1 1 0 0 0-1-1ZM8 18a1 1 0 0 1 1-1h14a1 1 0 1 1 0 2H9a1 1 0 0 1-1-1ZM6 21a1 1 0 0 1 1-1h18a1 1 0 1 1 0 2h-8v3.313h-.024A2 2 0 0 1 15 27h-1a1 1 0 1 1 0-2h.5a.5.5 0 0 0 .5-.5V22H7a1 1 0 0 1-1-1Z"/><path fill="#fff" d="M8.707 25.707a1 1 0 0 1 0-1.414l1.414-1.414a1 1 0 0 1 1.415 1.414l-1.415 1.414a1 1 0 0 1-1.414 0ZM23.121 24.371l-1.414-1.414a1 1 0 0 0-1.414 1.414l1.414 1.415a1 1 0 1 0 1.414-1.415ZM20 7a1 1 0 1 1 2 0v1h2a1 1 0 1 1 0 2h-1.899l.067.071c.39.418.857.896 1.232 1.218.717.616 1.065.896 1.852 1.348l-.017.028.018-.031a1.002 1.002 0 0 1 .11 1.66 1.001 1.001 0 0 1-1.106.074l-.002.003c-.94-.54-1.394-.908-2.159-1.565a8.4 8.4 0 0 1-.096-.084V15a1 1 0 1 1-2 0v-2.503c-.116.109-.232.213-.343.31-.764.656-1.22 1.024-2.159 1.564l-.001-.003a1 1 0 0 1-.997-1.734l.018.031-.016-.028c.787-.452 1.135-.732 1.851-1.348.375-.322.843-.8 1.233-1.218l.066-.071H18a1 1 0 1 1 0-2h2V7Z"/></svg>
